shader_type canvas_item;

uniform vec3 colors_fore[10240];
uniform vec3 colors_back[10240];

uniform vec2 canvas_size;
uniform vec2 tile_size;

varying vec2 coords;

void vertex() {
}

void fragment() {
}

